X: 1
T: Rakish Paddy
R: reel
M: 4/4
L: 1/8
K: Ador
|:c4 c2 AB|cBAG Ec c2|Add^c defe| dcAG FGAB|
c2 AB c2 AB|cBAG FEDE|DEFG ABcA|dcAG F2 D2:|
|:eg g2 ag g2|eg g2 ed^cd|ea a2 ba a2|ea a2 ed^cd|
eg g2 ag g2|f3e defg|afge fde^c|dcAG F2 D2:|
